X: 329
T: Bilmem ki Nedendir
C: Selânikli Ahmed Bey
O: Turkey
F: http://compmusic.upf.edu/node/140
N: rast--sarki--senginsemai--bilmem_ki--selanikli_ahmed_bey
N: makam= rast
N: form= sarki
N: usul= senginsemai = 6/4
M: 6/4
L: 1/16
K: C _1/4B ^f  
Q: 1/4=66
%%MIDI tuningsystem comma53
(3G2G2G2 (3B2B2B2 d4 c3B A8  | e3d d3c c3B dcB^A B8  | 
w:  ARANAĞME  |   | 
(3D2D2D2 (3G2G2G2 B4 A3G F3E D4  | \
w:   | 
G3e d2c2 B3A A2{B}AG G8  | 
w:   | 
(3G2G2G2 (3B2B2B2 d4 c3B A8  | e3d d3c c3B dcB^A B8  | 
w:  ARANAĞME  |   | 
(3D2D2D2 (3G2G2G2 B4 A3G F3E D4  | \
w:   | 
G3e d2c2 B3A A2{B}AG G8  | 
w:   | 
G4 d3c c3B B2{c}BA A8  | A2c2 B2A2 A3B AGGF G8  | \
w:  Bil mem  *  ki  *  ne *  *  *  den  |  dir  *  *  *  ba *  na  *  *  *  sen   | 
c2d4dc c3B B3A A3G d2{=f}ed  | 
w:  hor  *  *  *  ba *  kı *  yor  | 
d8 dccB BAAG G8  | G4 d3c c3B B2{c}BA A8  | \
w:  sun   SAZ  |  Bil mem  *  ki  *  ne *  *  *  den  | 
A2c2 B2A2 A3B AGGF G8  | 
w:  dir  *  *  *  ba *  na  *  *  *  sen   | 
c2d4dc c3B B3A A3G d2{=f}ed  | d8 dccB BAAG d8  | 
w:  hor  *  *  *  ba *  kı *  yor  |  sun   SAZ  | 
g3=f f3e e3d edcd e6z2  | d2=f2 e2d2 d3c dccB B2{c}Bc BcBA  | 
w:  Yap *  ma  *  gü *  ze *  *  *  lim   |  böy *  *  *  le  *  yü *  *  *  rek  | 
A2B2 A2G2 d2cd c2Bc B3A A2{B}AG  | \
w:  ler  *  *  *  ya *  *  kı *  *  yor  | 
G8 dccB BAAG d8  | 
w:  sun   SAZ  | 
g3=f f3e e3d edcd e6z2  | d2=f2 e2d2 d3c dccB B2{c}Bc BcBA  | 
w:  Yap *  ma  *  gü *  ze *  *  *  lim   |  böy *  *  *  le  *  yü *  *  *  rek  | 
A2B2 A2G2 d2cd c2Bc B3A A2{B}AG  | \
w:  ler  *  *  *  ya *  *  kı *  *  yor  | 
G8 aggf f_7/8eed d8  | 
w:  sun   SAZ  | 
a3g g3f f3_7/8e feed d8  | d2_7/8ed c4 =f2g2 a2{_b}ag g8  | 
w:  N'ol *  dun  *  ne *  ye  *  *  *  git  |  tin  *  *  *  ne  *  ta *  *  *  raf  | 
=f3_1/4e d4 e3d g4 gf2e feed  | d8 dccB BAAG d8  | 
w:  ta  *  *  ça *  kı yor  |  sun   SAZ  | 
g3=f f3e e3d edcd e6z2  | d2=f2 e2d2 d3c dccB B2{c}Bc BcBA  | 
w:  Yap *  ma  *  gü *  ze *  *  *  lim   |  böy *  *  *  le  *  yü *  *  *  rek  | 
A2B2 A2G2 d2cd c2Bc B3A A2{B}AG  | \
w:  ler  *  *  *  ya *  *  kı *  *  yor  | 
G3e d2c2 B3A A2{B}AG G8  | 
w:  sun   SAZ KARAR  | 
|


